icons/heart-24.svg

<svg xmlns="http://www.w3.org/2000/svg" width="24" height="24" viewBox="0 0 24 24"><path fill-rule="evenodd" d="M6.736 4C4.657 4 2.5 5.88 2.5 8.514c0 3.107 2.324 5.96 4.861 8.12a29.66 29.66 0 004.566 3.175l.073.041.073-.04c.271-.153.661-.38 1.13-.674.94-.588 2.19-1.441 3.436-2.502 2.537-2.16 4.861-5.013 4.861-8.12C21.5 5.88 19.343 4 17.264 4c-2.106 0-3.801 1.389-4.553 3.643a.75.75 0 01-1.422 0C10.537 5.389 8.841 4 6.736 4zM12 20.703l.343.667a.75.75 0 01-.686 0l.343-.667zM1 8.513C1 5.053 3.829 2.5 6.736 2.5 9.03 2.5 10.881 3.726 12 5.605 13.12 3.726 14.97 2.5 17.264 2.5 20.17 2.5 23 5.052 23 8.514c0 3.818-2.801 7.06-5.389 9.262a31.146 31.146 0 01-5.233 3.576l-.025.013-.007.003-.002.001-.344-.666-.343.667-.003-.002-.007-.003-.025-.013A29.308 29.308 0 0110 20.408a31.147 31.147 0 01-3.611-2.632C3.8 15.573 1 12.332 1 8.514z"/></svg>

<svg xmlns="http://www.w3.org/2000/svg" width="24" height="24" viewBox="0 0 24 24">
  <defs/>
  <path d="M12,20.703 L12.343,21.37 C12.128,21.481 11.872,21.481 11.657,21.37 L11.654,21.368 L11.647,21.365 L11.622,21.352 C11.071,21.055 10.53,20.74 10,20.408 C8.735,19.618 7.528,18.739 6.389,17.776 C3.8,15.573 1,12.332 1,8.514 L1,8.513 C1,5.053 3.829,2.5 6.736,2.5 C9.03,2.5 10.881,3.726 12,5.605 C13.12,3.726 14.97,2.5 17.264,2.5 C20.17,2.5 23,5.052 23,8.514 C23,12.332 20.199,15.574 17.611,17.776 C15.993,19.143 14.239,20.341 12.378,21.352 L12.353,21.365 L12.346,21.368 L12.344,21.369 Z M6.736,4 C4.657,4 2.5,5.88 2.5,8.514 C2.5,11.621 4.824,14.474 7.361,16.634 C8.78,17.833 10.309,18.896 11.927,19.809 L12,19.85 L12.073,19.81 C12.344,19.657 12.734,19.43 13.203,19.136 C14.143,18.548 15.393,17.695 16.639,16.634 C19.176,14.474 21.5,11.621 21.5,8.514 C21.5,5.88 19.343,4 17.264,4 C15.158,4 13.463,5.389 12.711,7.643 C12.608,7.948 12.322,8.154 12,8.154 C11.678,8.154 11.392,7.948 11.289,7.643 C10.537,5.389 8.841,4 6.736,4 Z"/>
</svg>
